!! 00000] TT[WS
!!!OTL: Shiquan ren
!!!ARE: Asia, China, Shanxi Hequ
!! Ethnic Group: Han
!! WI, 293 (2)
!!!SCT: J0355
!!!YEM: Copyright 1995, estate of Helmut Schaffrath.
**kern
*ICvox
*Ivox
*M2/4
*k[f#c#g#]
*A:
{8ccc#
8eee
8eee
8ff#
=1
2aa
=2
8eee
8fff#
8eee
8ccc#
=3
2bb}
=4
{4bb
8eee
8ccc#
=5
8bb
8ccc#
8bb
8aa
=6
8ff#
8bb
8aa
8ff#
=7
2ee}
=8
{8ccc#
8gg#
8ff#
8ee
=9
4ff#
8ccc#
8bb
=10
8aa
8ff#
8ee
8cc#
=11
2b}
=12
{8bb
8fff#
8eee
8ccc#
=13
8eee
8ccc#
8bb
8ccc#
=14
8eee
8ccc#
8eee
8fff#
=15
4.ccc#
8bb
=16
8aa
8ff#
8ee
8cc#
=17
2b}
==
!!!AGN: Xiaodiao. Xinminge, Qingge, Xuanchuan
!! Neue Text. Politische Liede
!!!ONB: ESAC (Essen Associative Code) Database: CHINA
!!!AMT: simple duple
!!!AIN: vox
!!!EED: Helmut Schaffrath
!!!EEV: 1.0
*-
